X: 11
T: Humours Of Kinvara, The
C: Pat Kelly
Z: birlibirdie
S: https://thesession.org/tunes/294#setting54291
R: reel
M: 4/4
L: 1/8
K: Ador
g2 f2|eA A/A/A eAgf|eA A/A/A efge|fd d/d/d fgad|fgab a2gf |
eA A/A/A eAgf|eA A/A/A efge|fd d/d/d fgad|e/f/g ab a2ga ||
gdba gfef|gbba g2ba|gb b/a/g bc'bg|afdf ac'ba|
gbba gfed|gbba gbba|bbba bc' d'/c'/b|afdf a2gf|

%-------------------- TUNE SEPARATOR --------------------%

